X: 1
T: Scottish Reform
T: the Prince of Wales
R: jig
O:
B:
D:
Z: John Chambers <jc@trillian.mit.edu>
N: RSCDS-3 (1910)
N:
M: 6/8
L: 1/8
K: D
|: (F/G/) \
| "D"A>BA (AFA) | d3- d(cB) | A>BA "B7"(AGF) | "Em"(EG)F "A7"E(FG) |
| "D"A>BA (AFA) | "Bm"d3- d(ef) | "Em"g>fg "A7"(eag) | "D"f>dd d2 :|
|: (f/g/) \
| "D"a>fd (def) | "Em"gba "A7"gfe | "D"a>fd "Em"g2f | "A7"(e>c)A A2(f/g/) |
| "D"a>fd (def) | "Em"gba "A7"gfe | "Em"g>fg "A7"(eag) | "D"f>dd d2(f/g/) |
| "D"a>fd (def) | "Em"gba "A7"gfe | "D"a>fd "Em"g2f | "A7"(e>c)A (ABc) |
| "D"(df)d "A"(ec)A | "Bm"(Bd)B "D"(AF)D | "Em"G>FG "A7"(EAG) | "D"F>DD D2 |]
